app/assets/images/my-wallets/trezor_wallet.inline.svg

<?xml version="1.0" encoding="UTF-8"?>
<svg width="38px" height="38px" viewBox="0 0 38 38" version="1.1" xmlns="http://www.w3.org/2000/svg" xmlns:xlink="http://www.w3.org/1999/xlink">
    <!-- Generator: sketchtool 60 (101010) - https://sketch.com -->
    <title>22592689-42D4-46C6-9DBB-D4B6C763220B</title>
    <desc>Created with sketchtool.</desc>
    <g id="Asset-Artboard-Page" stroke="none" stroke-width="1" fill="none" fill-rule="evenodd">
        <g id="icon/trezor-wallet">
            <g id="icon/cicrle-bg" fill="#A7AFC0">
                <circle id="Oval-Copy" cx="19" cy="19" r="19"></circle>
            </g>
            <path d="M24.3061385,10 C25.1937327,10 25.9156427,10.5845799 25.9931154,11.3392038 L26,11.4740535 L26,21.6138865 C25.9906972,21.8509826 25.9323292,22.0830663 25.8291799,22.2961384 L25.7434883,22.4521592 L22.7604346,26.8285956 C22.7604346,26.8285956 21.9556825,27.8734594 21.0112165,27.9895554 L20.843231,28 L17.0972762,28 C16.1871487,28 15.3425211,27.0047062 15.1747893,26.7951706 L15.1446918,26.7567437 L12.2456677,22.4695778 C12.1081758,22.263407 12.0258651,22.0272533 12.0051783,21.783005 L12.0002126,21.6356599 L12.0002126,11.4740535 C12.0002126,10.6988025 12.6708393,10.0730952 13.5370656,10.0059649 L13.6918628,10 L24.3061385,10 Z M24.3061385,11.3 L13.6918628,11.3 C13.4693724,11.3 13.3405511,11.3844782 13.3082856,11.445813 L13.3002126,11.4740535 L13.3000223,21.6579046 L13.30589,21.7035667 L13.3225664,21.7413683 L16.1835111,25.9751719 C16.2490283,26.0622535 16.3978776,26.2297394 16.5877453,26.3932137 C16.7913878,26.5685479 16.9691646,26.6687032 17.0596136,26.6937408 L17.0972762,26.7 L20.843231,26.7 C20.9254564,26.7 21.122567,26.6047732 21.3516186,26.4144416 C21.4288198,26.3502909 21.4985948,26.2855777 21.5542925,26.2313386 L21.6862385,26.0964052 L24.6376473,21.7687007 C24.6570912,21.7372403 24.6722213,21.7038362 24.6827195,21.6756474 L24.7,21.6138865 L24.7,11.4740535 C24.7,11.425182 24.6011534,11.3322142 24.4096078,11.3066493 L24.3061385,11.3 Z M22.7142496,13 C22.8678788,13 23,13.1988105 23,13.4367035 L23,18.5632965 C23,18.8011895 22.8694151,19 22.7142496,19 L15.2908839,19 C15.1372547,19 15.0051335,18.8011895 15.0051335,18.5632965 L15.0051335,13.4367035 C14.9892272,13.3366663 15.0106366,13.2337689 15.0644776,13.1514854 C15.1183186,13.0692019 15.1999986,13.0145509 15.2908839,13 L22.7142496,13 Z M21.7,14.3 L16.305,14.3 L16.305,17.7 L21.7,17.7 L21.7,14.3 Z" id="Combined-Shape" fill="#FFFFFF" fill-rule="nonzero"></path>
        </g>
    </g>
</svg>

<svg width="38" height="38" xmlns="http://www.w3.org/2000/svg"><g fill="none" fill-rule="evenodd"><circle cx="19" cy="19" r="19" fill="#A7AFC0"/><path d="M24.306 10c.888 0 1.61.585 1.687 1.34l.007.134v10.14a1.72 1.72 0 01-.17.682l-.087.156-2.983 4.377s-.804 1.044-1.749 1.16l-.168.011h-3.746c-.91 0-1.754-.995-1.922-1.205l-.03-.038-2.9-4.287a1.46 1.46 0 01-.24-.687L12 21.636V11.474c0-.775.67-1.4 1.537-1.468l.155-.006h10.614zm0 1.3H13.692c-.223 0-.351.084-.384.146l-.008.028v10.184l.006.046.017.037 2.86 4.234c.066.087.215.255.405.418.203.176.381.276.472.3l.037.007h3.746c.082 0 .28-.095.509-.286a3.51 3.51 0 00.202-.183l.132-.135 2.952-4.327a.538.538 0 00.045-.093l.017-.062v-10.14c0-.049-.099-.142-.29-.167l-.104-.007zM22.714 13c.154 0 .286.199.286.437v5.126c0 .238-.13.437-.286.437h-7.423c-.154 0-.286-.199-.286-.437v-5.126a.407.407 0 01.06-.286.336.336 0 01.226-.151h7.423zM21.7 14.3h-5.395v3.4H21.7v-3.4z" fill="#FFF" fill-rule="nonzero"/></g></svg>
